src/images/foto.svg

<svg xmlns="http://www.w3.org/2000/svg" xml:space="preserve" id="Слой_1" x="0" y="0" style="enable-background:new 0 0 61.5 93.1" version="1.1" viewBox="0 0 61.5 93.1"><style>.st0{fill:#264f26}</style><g id="Слой_2_00000013176757265765186810000010055001912772019103_"><g id="Слой_1-2"><path d="M61.1 92.7c-15.3.1-45.7.4-61.1.4V52.2h.5c15.1 0 45.5.1 60.6.2h.3v.3l-.3 40zm0 0-.3-40 .3.3-30.3.1H.5l.5-.4-.1 40-.4-.4c15.1 0 45.5.3 60.6.4z" class="st0"/><path d="M45.9 74.5c.1 12.3-15 18.7-23.9 10.1-5.6-5.5-5.6-14.5-.1-20.1l.1-.1c8.9-8.6 24-2.3 23.9 10.1zm0 0c0-12.2-14.8-18.1-23.3-9.5-5.1 5.3-5.1 13.7 0 18.9 8.5 8.7 23.3 2.7 23.3-9.4zM56.9 60.7c-3.3.2-6.9.4-10.3.5 0-1.6 0-3.2-.1-4.8v-.5h.5c3.4 0 6.8.1 10.1.2 0 1.6-.1 3.2-.2 4.6zm0 0c-.1-1.5-.2-2.9-.3-4.3l.3.3c-3.3.2-6.6.2-9.9.2l.5-.5v4.3l-.5-.5c3.3.1 6.5.3 9.9.5zM49.7 80c-.1.9-.8 1.5-1.7 1.4-.8-.1-1.4-.7-1.4-1.4-.1-.9.6-1.6 1.4-1.7.9-.1 1.6.6 1.7 1.4v.3zm0 0c.1-.6-.4-1.1-1-1.2-.6-.1-1.1.4-1.2 1v.2c-.1.6.4 1.1 1 1.2.6.1 1.1-.4 1.2-1V80z" class="st0"/><path d="M61.1 63.7c-6.8.7-13.6.7-20.4 0 6.8-.7 13.7-.7 20.4 0zM42.6 83.5c6.2-.7 12.4-.7 18.5 0-6.1.7-12.3.7-18.5 0zM.5 83.5c7-.7 14.1-.7 21.1 0-7 .7-14.1.7-21.1 0zM23.5 63.7c-7.7.7-15.3.7-23 0 7.6-.7 15.3-.7 23 0zM42.9 74.5c.1 9.6-11.8 14.7-18.7 7.9-4.4-4.3-4.4-11.4-.1-15.7l.1-.1c6.9-6.8 18.8-1.7 18.7 7.9zm0 0c0-9.4-11.6-14.1-18.1-7.3-3.9 4.1-3.9 10.5 0 14.6 6.5 6.8 18.1 2.1 18.1-7.3zM15.3 52.7c-2.4.2-5.1.4-7.8.5-.1-1.6-.1-3.1-.1-4.8h.5c2.6 0 5.1.1 7.7.2-.1 1.4-.2 2.8-.3 4.1zm0 0c-.1-1.4-.2-2.6-.3-3.8l.3.3c-2.5.1-4.9.2-7.4.2l.5-.5c0 1.3 0 2.5-.1 3.8l-.4-.5c2.3.1 4.7.3 7.4.5z" class="st0"/><path d="M30.8 65.8c-2.5 1.8-4.6 4.1-6.1 6.9.3-3.4 2.8-6.2 6.1-6.9zM34.7 52.8c-.7-3.9-.7-8 0-11.9.7 3.9.7 7.9 0 11.9zM29 41.1c.7 3.9.7 7.8 0 11.7-.7-3.9-.7-7.8 0-11.7z" class="st0"/><path d="M52 21.1c0 17.8-21.5 26.8-34.3 14.4-7.9-7.9-8-20.7-.1-28.7l.1-.1C30.5-5.7 52 3.3 52 21.1zm0 0C51.9 3.5 30.7-5.1 18.4 7.3c-7.5 7.3-7.5 20.3 0 27.5C30.7 47.3 51.9 38.7 52 21.1z" class="st0"/><path d="M34.7 21.1c-.1 1.6-1.4 2.7-3 2.6-1.4-.1-2.6-1.2-2.6-2.6.1-1.6 1.4-2.7 3-2.6 1.4 0 2.5 1.2 2.6 2.6zm0 0c-.1-1.3-1.2-2.2-2.5-2.2-1.2.1-2.1 1-2.2 2.2.1 1.3 1.2 2.2 2.5 2.2 1.2-.1 2.1-1 2.2-2.2z" class="st0"/><path d="M32.1 1.2c.7 5.8.7 11.6 0 17.3-.7-5.7-.7-11.5 0-17.3zM22.2 3.9c3.5 4.6 6.4 9.7 8.7 15a75.1 75.1 0 0 1-8.7-15zM14.9 11.1c5.3 2.3 10.4 5.2 15 8.7-5.3-2.3-10.4-5.2-15-8.7zM12.2 21.1c5.8-.7 11.6-.7 17.3 0-5.7.7-11.5.7-17.3 0zM14.9 31c4.6-3.5 9.7-6.4 15-8.7-4.6 3.5-9.7 6.4-15 8.7zM22.2 38.3c2.3-5.3 5.2-10.4 8.7-15-2.4 5.3-5.3 10.4-8.7 15zM32.1 41c-.7-5.8-.7-11.6 0-17.3.7 5.7.7 11.5 0 17.3zM42.1 38.3c-3.5-4.6-6.4-9.7-8.7-15 3.5 4.7 6.4 9.7 8.7 15zM49.3 31c-5.3-2.3-10.4-5.2-15-8.7 5.4 2.3 10.4 5.2 15 8.7zM52 21.1c-5.8.7-11.6.7-17.3 0 5.7-.7 11.5-.7 17.3 0zM49.3 11.1c-4.6 3.5-9.7 6.4-15 8.7 4.7-3.5 9.7-6.4 15-8.7zM42.1 3.9c-2.3 5.3-5.2 10.4-8.7 15 2.3-5.4 5.2-10.4 8.7-15z" class="st0"/><path d="M11.3 21.1c0-18.6 22.6-28.1 35.9-15 8.3 8.3 8.3 21.7.1 30l-.1.1c-13.4 13-36 3.5-35.9-15.1zm0 0c.1 18.4 22.4 27.5 35.3 14.4 7.8-7.6 7.8-21.3 0-28.9-13-13-35.2-4-35.3 14.5z" class="st0"/></g></g></svg>

<?xml version="1.0" encoding="utf-8"?>
<!-- Generator: Adobe Illustrator 27.0.0, SVG Export Plug-In . SVG Version: 6.00 Build 0)  -->
<svg version="1.1" id="Слой_1" xmlns="http://www.w3.org/2000/svg" xmlns:xlink="http://www.w3.org/1999/xlink" x="0px" y="0px"
	 viewBox="0 0 61.5 93.1" style="enable-background:new 0 0 61.5 93.1;" xml:space="preserve">
<style type="text/css">
	.st0{fill:#264F26;}
</style>
<g id="Слой_2_00000013176757265765186810000010055001912772019103_">
	<g id="Слой_1-2">
		<path class="st0" d="M61.1,92.7c-15.3,0.1-45.7,0.4-61.1,0.4v-0.4L0,52.7v-0.5h0.5c15.1,0,45.5,0.1,60.6,0.2h0.3v0.3L61.1,92.7
			L61.1,92.7z M61.1,92.7l-0.3-40l0.3,0.3l-30.3,0.1l-30.3,0L1,52.7l-0.1,40l-0.4-0.4C15.6,92.3,46,92.6,61.1,92.7z"/>
		<path class="st0" d="M45.9,74.5C46,86.8,30.9,93.2,22,84.6c-5.6-5.5-5.6-14.5-0.1-20.1c0,0,0.1-0.1,0.1-0.1
			C30.9,55.8,46,62.1,45.9,74.5L45.9,74.5z M45.9,74.5C45.9,62.3,31.1,56.4,22.6,65c-5.1,5.3-5.1,13.7,0,18.9
			C31.1,92.6,45.9,86.6,45.9,74.5L45.9,74.5z"/>
		<path class="st0" d="M56.9,60.7c-3.3,0.2-6.9,0.4-10.3,0.5c0-1.6,0-3.2-0.1-4.8v-0.5H47c3.4,0,6.8,0.1,10.1,0.2
			C57.1,57.7,57,59.3,56.9,60.7L56.9,60.7z M56.9,60.7c-0.1-1.5-0.2-2.9-0.3-4.3l0.3,0.3c-3.3,0.2-6.6,0.2-9.9,0.2l0.5-0.5
			c0,1.4,0,2.9,0,4.3L47,60.2C50.3,60.3,53.5,60.5,56.9,60.7L56.9,60.7z"/>
		<path class="st0" d="M49.7,80c-0.1,0.9-0.8,1.5-1.7,1.4c-0.8-0.1-1.4-0.7-1.4-1.4c-0.1-0.9,0.6-1.6,1.4-1.7
			c0.9-0.1,1.6,0.6,1.7,1.4C49.7,79.8,49.7,79.9,49.7,80z M49.7,80c0.1-0.6-0.4-1.1-1-1.2c-0.6-0.1-1.1,0.4-1.2,1c0,0.1,0,0.1,0,0.2
			c-0.1,0.6,0.4,1.1,1,1.2c0.6,0.1,1.1-0.4,1.2-1C49.7,80.1,49.7,80.1,49.7,80z"/>
		<path class="st0" d="M61.1,63.7c-6.8,0.7-13.6,0.7-20.4,0C47.5,63,54.4,63,61.1,63.7z"/>
		<path class="st0" d="M42.6,83.5c6.2-0.7,12.4-0.7,18.5,0C55,84.2,48.8,84.2,42.6,83.5z"/>
		<path class="st0" d="M0.5,83.5c7-0.7,14.1-0.7,21.1,0C14.6,84.2,7.5,84.2,0.5,83.5z"/>
		<path class="st0" d="M23.5,63.7c-7.7,0.7-15.3,0.7-23,0C8.1,63,15.8,63,23.5,63.7z"/>
		<path class="st0" d="M42.9,74.5c0.1,9.6-11.8,14.7-18.7,7.9c-4.4-4.3-4.4-11.4-0.1-15.7c0,0,0.1-0.1,0.1-0.1
			C31.1,59.8,43,64.9,42.9,74.5z M42.9,74.5c0-9.4-11.6-14.1-18.1-7.3c-3.9,4.1-3.9,10.5,0,14.6C31.3,88.6,42.9,83.9,42.9,74.5
			L42.9,74.5z"/>
		<path class="st0" d="M15.3,52.7c-2.4,0.2-5.1,0.4-7.8,0.5c-0.1-1.6-0.1-3.1-0.1-4.8h0.5c2.6,0,5.1,0.1,7.7,0.2
			C15.5,50,15.4,51.4,15.3,52.7L15.3,52.7z M15.3,52.7c-0.1-1.4-0.2-2.6-0.3-3.8l0.3,0.3c-2.5,0.1-4.9,0.2-7.4,0.2l0.5-0.5
			c0,1.3,0,2.5-0.1,3.8l-0.4-0.5C10.2,52.3,12.6,52.5,15.3,52.7z"/>
		<path class="st0" d="M30.8,65.8c-2.5,1.8-4.6,4.1-6.1,6.9C25,69.3,27.5,66.5,30.8,65.8z"/>
		<path class="st0" d="M34.7,52.8c-0.7-3.9-0.7-8,0-11.9C35.4,44.8,35.4,48.8,34.7,52.8z"/>
		<path class="st0" d="M29,41.1c0.7,3.9,0.7,7.8,0,11.7C28.3,48.9,28.3,45,29,41.1z"/>
		<path class="st0" d="M52,21.1c0,17.8-21.5,26.8-34.3,14.4c-7.9-7.9-8-20.7-0.1-28.7c0,0,0,0,0.1-0.1C30.5-5.7,52,3.3,52,21.1z
			 M52,21.1C51.9,3.5,30.7-5.1,18.4,7.3c-7.5,7.3-7.5,20.3,0,27.5C30.7,47.3,51.9,38.7,52,21.1z"/>
		<path class="st0" d="M34.7,21.1c-0.1,1.6-1.4,2.7-3,2.6c-1.4-0.1-2.6-1.2-2.6-2.6c0.1-1.6,1.4-2.7,3-2.6
			C33.5,18.5,34.6,19.7,34.7,21.1z M34.7,21.1c-0.1-1.3-1.2-2.2-2.5-2.2c-1.2,0.1-2.1,1-2.2,2.2c0.1,1.3,1.2,2.2,2.5,2.2
			C33.7,23.2,34.6,22.3,34.7,21.1z"/>
		<path class="st0" d="M32.1,1.2c0.7,5.8,0.7,11.6,0,17.3C31.4,12.8,31.4,7,32.1,1.2z"/>
		<path class="st0" d="M22.2,3.9c3.5,4.6,6.4,9.7,8.7,15C27.4,14.2,24.5,9.2,22.2,3.9z"/>
		<path class="st0" d="M14.9,11.1c5.3,2.3,10.4,5.2,15,8.7C24.6,17.5,19.5,14.6,14.9,11.1z"/>
		<path class="st0" d="M12.2,21.1c5.8-0.7,11.6-0.7,17.3,0C23.8,21.8,18,21.8,12.2,21.1z"/>
		<path class="st0" d="M14.9,31c4.6-3.5,9.7-6.4,15-8.7C25.3,25.8,20.2,28.7,14.9,31z"/>
		<path class="st0" d="M22.2,38.3c2.3-5.3,5.2-10.4,8.7-15C28.5,28.6,25.6,33.7,22.2,38.3z"/>
		<path class="st0" d="M32.1,41c-0.7-5.8-0.7-11.6,0-17.3C32.8,29.4,32.8,35.2,32.1,41z"/>
		<path class="st0" d="M42.1,38.3c-3.5-4.6-6.4-9.7-8.7-15C36.9,28,39.8,33,42.1,38.3z"/>
		<path class="st0" d="M49.3,31c-5.3-2.3-10.4-5.2-15-8.7C39.7,24.6,44.7,27.5,49.3,31z"/>
		<path class="st0" d="M52,21.1c-5.8,0.7-11.6,0.7-17.3,0C40.4,20.4,46.2,20.4,52,21.1z"/>
		<path class="st0" d="M49.3,11.1c-4.6,3.5-9.7,6.4-15,8.7C39,16.3,44,13.4,49.3,11.1z"/>
		<path class="st0" d="M42.1,3.9c-2.3,5.3-5.2,10.4-8.7,15C35.7,13.5,38.6,8.5,42.1,3.9z"/>
		<path class="st0" d="M11.3,21.1c0-18.6,22.6-28.1,35.9-15c8.3,8.3,8.3,21.7,0.1,30c0,0,0,0-0.1,0.1C33.8,49.2,11.2,39.7,11.3,21.1
			L11.3,21.1z M11.3,21.1c0.1,18.4,22.4,27.5,35.3,14.4c7.8-7.6,7.8-21.3,0-28.9C33.6-6.4,11.4,2.6,11.3,21.1z"/>
	</g>
</g>
</svg>
